%
(Header)
(Generated by gcodetools from Inkscape.)
(Using default header. To add your own header create file "header" in the output dir.)
M3
(Header end.)
G21 (All units in mm)

(Start cutting path id: path1)
(Change tool to Default tool)

G00 Z5.000000
G00 X5.060547 Y9.685547

G01 X4.937500 Y9.562500 Z0 
G01 X4.816406 Y9.437500 Z0
G01 X4.769531 Y9.371094 Z0
G01 X4.722656 Y9.302734 Z0
G01 X4.689453 Y9.234375 Z0
G01 X4.656250 Y9.164062 Z0
G01 X4.632812 Y9.060547 Z0
G01 X4.611328 Y8.957031 Z0
G01 X4.611328 Y8.878906 Z0
G01 X4.611328 Y8.800781 Z0
G01 X4.623047 Y8.800781 Z0
G01 X4.636719 Y8.800781 Z0
G01 X4.630859 Y8.763672 Z0
G01 X4.623049 Y8.726563 Z0
G01 X4.656250 Y8.625000 Z0
G01 X4.689453 Y8.525391 Z0
G01 X4.720703 Y8.462891 Z0
G01 X4.753906 Y8.402344 Z0
G01 X4.814453 Y8.312500 Z0
G01 X4.876953 Y8.222656 Z0
G01 X4.972656 Y8.109375 Z0
G01 X5.068359 Y7.998047 Z0
G01 X5.484375 Y7.593750 Z0
G01 X5.898438 Y7.189453 Z0
G01 X5.898438 Y7.179683 Z0
G01 X5.898438 Y7.169913 Z0
G01 X6.511719 Y6.572266 Z0
G01 X7.125000 Y5.974609 Z0
G01 X7.125000 Y5.966799 Z0
G01 X7.125000 Y5.958989 Z0
G01 X7.267578 Y5.814458 Z0
G01 X7.410156 Y5.669927 Z0
G01 X7.501953 Y5.550786 Z0
G01 X7.595703 Y5.431646 Z0
G01 X7.642578 Y5.355474 Z0
G01 X7.691406 Y5.279302 Z0
G01 X7.751953 Y5.152349 Z0
G01 X7.812500 Y5.025395 Z0
G01 X7.845703 Y4.912114 Z0
G01 X7.878906 Y4.800786 Z0
G01 X7.886716 Y4.621099 Z0
G01 X7.894526 Y4.439458 Z0
G01 X7.855464 Y4.177739 Z0
G01 X7.816401 Y3.914067 Z0
G01 X7.806631 Y3.865239 Z0
G01 X7.796861 Y3.816411 Z0
G01 X7.832017 Y3.816411 Z0
G01 X7.867173 Y3.816411 Z0
G01 X7.941406 Y3.894531 Z0
G01 X8.015625 Y3.972656 Z0
G01 X8.109375 Y4.107422 Z0
G01 X8.201172 Y4.244141 Z0
G01 X8.267578 Y4.371094 Z0
G01 X8.332031 Y4.500000 Z0
G01 X8.365234 Y4.597656 Z0
G01 X8.396484 Y4.695312 Z0
G01 X8.414062 Y4.781249 Z0
G01 X8.431640 Y4.867186 Z0
G01 X8.421870 Y4.951170 Z0
G01 X8.410151 Y5.033201 Z0
G01 X8.427729 Y5.033201 Z0
G01 X8.445307 Y5.033201 Z0
G01 X8.445307 Y5.093750 Z0
G01 X8.445307 Y5.152344 Z0
G01 X8.433594 Y5.152344 Z0
G01 X8.421875 Y5.152344 Z0
G01 X8.419925 Y5.246094 Z0
G01 X8.416015 Y5.339844 Z0
G01 X8.376953 Y5.476562 Z0
G01 X8.335938 Y5.611328 Z0
G01 X8.261719 Y5.761719 Z0
G01 X8.185547 Y5.910156 Z0
G01 X8.095703 Y6.046875 Z0
G01 X8.005859 Y6.181641 Z0
G01 X7.876953 Y6.337891 Z0
G01 X7.746094 Y6.496094 Z0
G01 X7.433594 Y6.808594 Z0
G01 X7.121094 Y7.119141 Z0
G01 X7.111324 Y7.119141 Z0
G01 X7.099605 Y7.119141 Z0
G01 X6.925781 Y7.291016 Z0
G01 X6.751953 Y7.464844 Z0
G01 X6.738281 Y7.464844 Z0
G01 X6.726562 Y7.464844 Z0
G01 X6.626953 Y7.564453 Z0
G01 X6.527344 Y7.664062 Z0
G01 X6.527344 Y7.671872 Z0
G01 X6.527344 Y7.679682 Z0
G01 X6.039062 Y8.162109 Z0
G01 X5.550781 Y8.642578 Z0
G01 X5.460938 Y8.763672 Z0
G01 X5.369141 Y8.884766 Z0
G01 X5.302734 Y9.007812 Z0
G01 X5.238281 Y9.130859 Z0
G01 X5.207031 Y9.216797 Z0
G01 X5.177734 Y9.302734 Z0
G01 X5.162109 Y9.416016 Z0
G01 X5.146484 Y9.529297 Z0
G01 X5.130859 Y9.607422 Z0
G01 X5.115234 Y9.685547 Z0
G01 X5.087890 Y9.685547 Z0
G01 X5.060547 Y9.685547 Z0
G00 Z5.000000

(End cutting path id: path1)


(Start cutting path id: path1)
(Change tool to Default tool)

G00 Z5.000000
G00 X5.060547 Y9.595703

G01 Z0 F100.0(Penetrate)
G01 X5.072266 Y9.595703 Z0 F400.000000
G01 X5.082036 Y9.595703 Z0
G01 X5.101567 Y9.464844 Z0
G01 X5.119145 Y9.333984 Z0
G01 X5.142582 Y9.244141 Z0
G01 X5.166019 Y9.152344 Z0
G01 X5.222660 Y9.031250 Z0
G01 X5.281254 Y8.910156 Z0
G01 X5.357426 Y8.798828 Z0
G01 X5.435551 Y8.687500 Z0
G01 X5.566410 Y8.544922 Z0
G01 X5.697270 Y8.402344 Z0
G01 X6.113285 Y7.998047 Z0
G01 X6.529301 Y7.591797 Z0
G01 X6.544926 Y7.566406 Z0
G01 X6.558598 Y7.539062 Z0
G01 X6.576176 Y7.539062 Z0
G01 X6.591801 Y7.539062 Z0
G01 X6.806645 Y7.322265 Z0
G01 X7.021488 Y7.103515 Z0
G01 X7.033207 Y7.103515 Z0
G01 X7.042977 Y7.103515 Z0
G01 X7.335938 Y6.814453 Z0
G01 X7.628906 Y6.527344 Z0
G01 X7.734375 Y6.406250 Z0
G01 X7.839844 Y6.287109 Z0
G01 X7.910156 Y6.195312 Z0
G01 X7.980469 Y6.105468 Z0
G01 X8.068360 Y5.974609 Z0
G01 X8.154297 Y5.843750 Z0
G01 X8.222656 Y5.705078 Z0
G01 X8.289062 Y5.566406 Z0
G01 X8.330078 Y5.431640 Z0
G01 X8.369141 Y5.294921 Z0
G01 X8.378911 Y5.208984 Z0
G01 X8.386721 Y5.123047 Z0
G01 X8.400393 Y5.123047 Z0
G01 X8.414065 Y5.123047 Z0
G01 X8.414065 Y5.093750 Z0
G01 X8.414065 Y5.062500 Z0
G01 X8.400393 Y5.062500 Z0
G01 X8.388674 Y5.062500 Z0
G01 X8.378904 Y4.931641 Z0
G01 X8.369134 Y4.800781 Z0
G01 X8.337884 Y4.695312 Z0
G01 X8.306634 Y4.589844 Z0
G01 X8.236322 Y4.449219 Z0
G01 X8.167963 Y4.306641 Z0
G01 X8.070307 Y4.164062 Z0
G01 X7.972651 Y4.019531 Z0
G01 X7.919917 Y3.960937 Z0
G01 X7.867183 Y3.900390 Z0
G01 X7.904297 Y4.140625 Z0
G01 X7.939453 Y4.380859 Z0
G01 X7.933594 Y4.605469 Z0
G01 X7.927734 Y4.830078 Z0
G01 X7.886719 Y4.962891 Z0
G01 X7.845703 Y5.097656 Z0
G01 X7.791016 Y5.210938 Z0
G01 X7.738281 Y5.324219 Z0
G01 X7.640625 Y5.466797 Z0
G01 X7.542969 Y5.611328 Z0
G01 X7.472656 Y5.685547 Z0
G01 X7.402344 Y5.759766 Z0
G01 X7.402344 Y5.769536 Z0
G01 X7.402344 Y5.779306 Z0
G01 X7.210938 Y5.960938 Z0
G01 X7.017578 Y6.142578 Z0
G01 X7.017578 Y6.154297 Z0
G01 X7.017578 Y6.167969 Z0
G01 X6.404297 Y6.765625 Z0
G01 X5.791016 Y7.363281 Z0
G01 X5.791016 Y7.371091 Z0
G01 X5.791016 Y7.380861 Z0
G01 X5.396484 Y7.771484 Z0
G01 X5.000000 Y8.162109 Z0
G01 X4.921875 Y8.267578 Z0
G01 X4.843750 Y8.373047 Z0
G01 X4.789062 Y8.470703 Z0
G01 X4.736328 Y8.568359 Z0
G01 X4.703125 Y8.664062 Z0
G01 X4.671875 Y8.759766 Z0
G01 X4.671875 Y8.802734 Z0
G01 X4.671875 Y8.845703 Z0
G01 X4.656250 Y8.845703 Z0
G01 X4.640625 Y8.845703 Z0
G01 X4.640625 Y8.890625 Z0
G01 X4.640625 Y8.935547 Z0
G01 X4.656250 Y8.935547 Z0
G01 X4.671875 Y8.935547 Z0
G01 X4.671875 Y8.970703 Z0
G01 X4.671875 Y9.007812 Z0
G01 X4.703125 Y9.103516 Z0
G01 X4.732422 Y9.201172 Z0
G01 X4.796875 Y9.296875 Z0
G01 X4.859375 Y9.392578 Z0
G01 X4.960938 Y9.494141 Z0
G01 X5.060547 Y9.595703 Z0
G00 Z5.000000

(End cutting path id: path1)


(Start cutting path id: path1)
(Change tool to Default tool)

G00 Z5.000000
G00 X3.734375 Y9.359375

G01 Z0 F100.0(Penetrate)
G01 X3.642578 Y9.271484 Z0 F400.000000
G01 X3.550781 Y9.183594 Z0
G01 X3.503906 Y9.111328 Z0
G01 X3.457031 Y9.041016 Z0
G01 X3.427734 Y8.947266 Z0
G01 X3.398437 Y8.853516 Z0
G01 X3.408207 Y8.781250 Z0
G01 X3.417977 Y8.710938 Z0
G01 X3.398446 Y8.710938 Z0
G01 X3.380868 Y8.710938 Z0
G01 X3.390638 Y8.617188 Z0
G01 X3.400408 Y8.523438 Z0
G01 X3.423845 Y8.433594 Z0
G01 X3.447282 Y8.345703 Z0
G01 X3.496110 Y8.240234 Z0
G01 X3.542985 Y8.132812 Z0
G01 X3.611344 Y8.019531 Z0
G01 X3.679703 Y7.908203 Z0
G01 X3.765640 Y7.794922 Z0
G01 X3.851577 Y7.681640 Z0
G01 X3.923843 Y7.607421 Z0
G01 X3.998062 Y7.533202 Z0
G01 X3.998062 Y7.523432 Z0
G01 X3.998062 Y7.515622 Z0
G01 X4.296875 Y7.224609 Z0
G01 X4.595703 Y6.935547 Z0
G01 X4.595703 Y6.925777 Z0
G01 X4.595703 Y6.916007 Z0
G01 X5.296875 Y6.230460 Z0
G01 X5.998047 Y5.542960 Z0
G01 X6.007817 Y5.542960 Z0
G01 X6.015627 Y5.542960 Z0
G01 X6.263674 Y5.298819 Z0
G01 X6.509768 Y5.054679 Z0
G01 X6.638674 Y4.904288 Z0
G01 X6.769533 Y4.751944 Z0
G01 X6.863283 Y4.611319 Z0
G01 X6.958986 Y4.470694 Z0
G01 X7.025392 Y4.333976 Z0
G01 X7.091798 Y4.199210 Z0
G01 X7.130861 Y4.078116 Z0
G01 X7.169924 Y3.955069 Z0
G01 X7.181643 Y3.878897 Z0
G01 X7.191413 Y3.802725 Z0
G01 X7.201183 Y3.802725 Z0
G01 X7.210953 Y3.802725 Z0
G01 X7.205093 Y3.718741 Z0
G01 X7.199233 Y3.636710 Z0
G01 X7.230483 Y3.636710 Z0
G01 X7.261733 Y3.636710 Z0
G01 X7.332031 Y3.712891 Z0
G01 X7.402344 Y3.791016 Z0
G01 X7.455078 Y3.898438 Z0
G01 X7.509766 Y4.003906 Z0
G01 X7.531250 Y4.109375 Z0
G01 X7.554688 Y4.214844 Z0
G01 X7.554688 Y4.369141 Z0
G01 X7.554688 Y4.523438 Z0
G01 X7.542968 Y4.523438 Z0
G01 X7.529297 Y4.523438 Z0
G01 X7.537107 Y4.566407 Z0
G01 X7.542967 Y4.609376 Z0
G01 X7.509766 Y4.742188 Z0
G01 X7.474609 Y4.875000 Z0
G01 X7.421875 Y5.009766 Z0
G01 X7.369141 Y5.144531 Z0
G01 X7.308594 Y5.257812 Z0
G01 X7.246094 Y5.371094 Z0
G01 X7.183594 Y5.460938 Z0
G01 X7.121094 Y5.550782 Z0
G01 X7.027344 Y5.664062 Z0
G01 X6.935547 Y5.775391 Z0
G01 X6.660156 Y6.050781 Z0
G01 X6.384766 Y6.324219 Z0
G01 X6.373047 Y6.324219 Z0
G01 X6.363277 Y6.324219 Z0
G01 X6.220703 Y6.466797 Z0
G01 X6.078125 Y6.609375 Z0
G01 X6.056641 Y6.609375 Z0
G01 X6.037109 Y6.609375 Z0
G01 X6.037109 Y6.628906 Z0
G01 X6.037109 Y6.648438 Z0
G01 X5.662109 Y7.013672 Z0
G01 X5.285156 Y7.378906 Z0
G01 X5.285156 Y7.392578 Z0
G01 X5.285156 Y7.406250 Z0
G01 X5.261719 Y7.414062 Z0
G01 X5.236328 Y7.423828 Z0
G01 X5.105469 Y7.556641 Z0
G01 X4.974609 Y7.689453 Z0
G01 X4.964844 Y7.689453 Z0
G01 X4.953125 Y7.689453 Z0
G01 X4.699219 Y7.941406 Z0
G01 X4.445312 Y8.193359 Z0
G01 X4.365234 Y8.283203 Z0
G01 X4.285156 Y8.373047 Z0
G01 X4.171875 Y8.519531 Z0
G01 X4.058594 Y8.667969 Z0
G01 X3.998047 Y8.767578 Z0
G01 X3.937500 Y8.867188 Z0
G01 X3.859375 Y9.105469 Z0
G01 X3.779297 Y9.343750 Z0
G01 X3.755859 Y9.351562 Z0
G01 X3.734375 Y9.359375 Z0
G00 Z5.000000

(End cutting path id: path1)


(Start cutting path id: path1)
(Change tool to Default tool)

G00 Z5.000000
G00 X3.695312 Y9.265625

G01 Z0 F100.0(Penetrate)
G01 X3.720703 Y9.265625 Z0 F400.000000
G01 X3.746094 Y9.265625 Z0
G01 X3.806641 Y9.082031 Z0
G01 X3.865235 Y8.898438 Z0
G01 X3.929688 Y8.769531 Z0
G01 X3.996094 Y8.642578 Z0
G01 X4.123047 Y8.478516 Z0
G01 X4.250000 Y8.312500 Z0
G01 X4.330078 Y8.230469 Z0
G01 X4.412109 Y8.148438 Z0
G01 X4.412109 Y8.140628 Z0
G01 X4.412109 Y8.132818 Z0
G01 X4.636718 Y7.912115 Z0
G01 X4.863281 Y7.689459 Z0
G01 X4.873051 Y7.689459 Z0
G01 X4.882821 Y7.689459 Z0
G01 X5.009766 Y7.562500 Z0
G01 X5.136719 Y7.433594 Z0
G01 X5.146489 Y7.433594 Z0
G01 X5.154299 Y7.433594 Z0
G01 X5.265625 Y7.330078 Z0
G01 X5.376953 Y7.224609 Z0
G01 X5.376953 Y7.212890 Z0
G01 X5.376953 Y7.201171 Z0
G01 X5.826172 Y6.763671 Z0
G01 X6.275391 Y6.324218 Z0
G01 X6.291016 Y6.322268 Z0
G01 X6.304688 Y6.320318 Z0
G01 X6.632813 Y5.988287 Z0
G01 X6.960938 Y5.656256 Z0
G01 X7.074219 Y5.505865 Z0
G01 X7.187500 Y5.355475 Z0
G01 X7.287109 Y5.160162 Z0
G01 X7.384765 Y4.964850 Z0
G01 X7.423828 Y4.839850 Z0
G01 X7.464844 Y4.712896 Z0
G01 X7.482422 Y4.607428 Z0
G01 X7.500000 Y4.500000 Z0
G01 X7.507810 Y4.492190 Z0
G01 X7.517580 Y4.484380 Z0
G01 X7.517580 Y4.365239 Z0
G01 X7.517580 Y4.244146 Z0
G01 X7.507810 Y4.238286 Z0
G01 X7.500000 Y4.230469 Z0
G01 X7.482422 Y4.140625 Z0
G01 X7.462891 Y4.048828 Z0
G01 X7.410156 Y3.945312 Z0
G01 X7.357422 Y3.839844 Z0
G01 X7.304688 Y3.779297 Z0
G01 X7.251953 Y3.720703 Z0
G01 X7.242188 Y3.822266 Z0
G01 X7.230469 Y3.923828 Z0
G01 X7.193359 Y4.062500 Z0
G01 X7.154297 Y4.199219 Z0
G01 X7.072266 Y4.367188 Z0
G01 X6.990234 Y4.537109 Z0
G01 X6.882812 Y4.691406 Z0
G01 X6.773438 Y4.847656 Z0
G01 X6.654297 Y4.984375 Z0
G01 X6.535156 Y5.119141 Z0
G01 X5.539062 Y6.085938 Z0
G01 X4.541016 Y7.050781 Z0
G01 X4.531250 Y7.074219 Z0
G01 X4.521484 Y7.097656 Z0
G01 X4.267578 Y7.343750 Z0
G01 X4.011719 Y7.589844 Z0
G01 X4.011719 Y7.595704 Z0
G01 X4.011719 Y7.601564 Z0
G01 X3.912109 Y7.716797 Z0
G01 X3.810547 Y7.832031 Z0
G01 X3.718750 Y7.964844 Z0
G01 X3.628906 Y8.097656 Z0
G01 X3.568359 Y8.220703 Z0
G01 X3.507812 Y8.341797 Z0
G01 X3.476562 Y8.455078 Z0
G01 X3.445312 Y8.566406 Z0
G01 X3.445312 Y8.607422 Z0
G01 X3.445312 Y8.648438 Z0
G01 X3.425781 Y8.656248 Z0
G01 X3.406250 Y8.666018 Z0
G01 X3.425781 Y8.673828 Z0
G01 X3.445312 Y8.683598 Z0
G01 X3.445312 Y8.755859 Z0
G01 X3.445312 Y8.828125 Z0
G01 X3.482422 Y8.927734 Z0
G01 X3.517578 Y9.027343 Z0
G01 X3.562500 Y9.087890 Z0
G01 X3.605469 Y9.150390 Z0
G01 X3.623047 Y9.177734 Z0
G01 X3.638672 Y9.205078 Z0
G01 X3.667969 Y9.236328 Z0
G01 X3.695312 Y9.265625 Z0
G00 Z5.000000

(End cutting path id: path1)


(Start cutting path id: path1)
(Change tool to Default tool)

G00 Z5.000000
G00 X3.080078 Y8.154297

G01 Z0 F100.0(Penetrate)
G01 X3.046875 Y8.031250 Z0 F400.000000
G01 X3.011719 Y7.908203 Z0
G01 X2.990234 Y7.779297 Z0
G01 X2.970703 Y7.652344 Z0
G01 X2.970703 Y7.521484 Z0
G01 X2.970703 Y7.388672 Z0
G01 X2.982422 Y7.388672 Z0
G01 X2.996094 Y7.388672 Z0
G01 X2.990234 Y7.353516 Z0
G01 X2.982424 Y7.318360 Z0
G01 X3.005861 Y7.224610 Z0
G01 X3.031250 Y7.132812 Z0
G01 X3.078125 Y7.021484 Z0
G01 X3.125000 Y6.910156 Z0
G01 X3.232422 Y6.751953 Z0
G01 X3.339844 Y6.591797 Z0
G01 X3.460938 Y6.472656 Z0
G01 X3.583984 Y6.351562 Z0
G01 X3.583984 Y6.341793 Z0
G01 X3.583984 Y6.332022 Z0
G01 X3.632812 Y6.283195 Z0
G01 X3.681640 Y6.234367 Z0
G01 X3.691410 Y6.234367 Z0
G01 X3.703129 Y6.234367 Z0
G01 X3.798832 Y6.136710 Z0
G01 X3.894535 Y6.039054 Z0
G01 X3.908207 Y6.039054 Z0
G01 X3.919926 Y6.039054 Z0
G01 X4.396489 Y5.578117 Z0
G01 X4.873051 Y5.117179 Z0
G01 X4.904301 Y5.095695 Z0
G01 X4.933598 Y5.076164 Z0
G01 X4.933598 Y5.058586 Z0
G01 X4.933598 Y5.039055 Z0
G01 X5.185547 Y4.792969 Z0
G01 X5.439453 Y4.546875 Z0
G01 X5.439453 Y4.541015 Z0
G01 X5.439453 Y4.535155 Z0
G01 X5.552734 Y4.412108 Z0
G01 X5.667969 Y4.289061 Z0
G01 X5.753906 Y4.185546 Z0
G01 X5.839844 Y4.080077 Z0
G01 X5.939453 Y3.935546 Z0
G01 X6.037109 Y3.791014 Z0
G01 X6.111328 Y3.650389 Z0
G01 X6.183594 Y3.507811 Z0
G01 X6.240235 Y3.343749 Z0
G01 X6.294922 Y3.179686 Z0
G01 X6.314453 Y3.074218 Z0
G01 X6.333984 Y2.968749 Z0
G01 X6.341794 Y2.960939 Z0
G01 X6.351564 Y2.953129 Z0
G01 X6.351564 Y2.800785 Z0
G01 X6.351564 Y2.646488 Z0
G01 X6.343754 Y2.646488 Z0
G01 X6.333984 Y2.646488 Z0
G01 X6.314453 Y2.474613 Z0
G01 X6.294922 Y2.302738 Z0
G01 X6.304692 Y2.287113 Z0
G01 X6.314462 Y2.271488 Z0
G01 X6.333993 Y2.271488 Z0
G01 X6.353524 Y2.271488 Z0
G01 X6.414071 Y2.314457 Z0
G01 X6.474618 Y2.355473 Z0
G01 X6.552743 Y2.441410 Z0
G01 X6.632821 Y2.525394 Z0
G01 X6.679696 Y2.607425 Z0
G01 X6.728524 Y2.689456 Z0
G01 X6.763680 Y2.791019 Z0
G01 X6.798836 Y2.894534 Z0
G01 X6.818367 Y2.996097 Z0
G01 X6.837898 Y3.097659 Z0
G01 X6.830088 Y3.126956 Z0
G01 X6.822278 Y3.156253 Z0
G01 X6.835950 Y3.156253 Z0
G01 X6.849622 Y3.156253 Z0
G01 X6.849622 Y3.330078 Z0
G01 X6.849622 Y3.501953 Z0
G01 X6.837903 Y3.501953 Z0
G01 X6.824231 Y3.501953 Z0
G01 X6.830091 Y3.544922 Z0
G01 X6.837901 Y3.587891 Z0
G01 X6.804688 Y3.755859 Z0
G01 X6.771484 Y3.921875 Z0
G01 X6.718750 Y4.074219 Z0
G01 X6.664062 Y4.228516 Z0
G01 X6.613281 Y4.326172 Z0
G01 X6.562500 Y4.425781 Z0
G01 X6.470703 Y4.560547 Z0
G01 X6.378906 Y4.695312 Z0
G01 X6.255859 Y4.837891 Z0
G01 X6.132812 Y4.980469 Z0
G01 X5.548828 Y5.546875 Z0
G01 X4.962891 Y6.115234 Z0
G01 X4.962891 Y6.126953 Z0
G01 X4.962891 Y6.138672 Z0
G01 X4.921875 Y6.175781 Z0
G01 X4.878906 Y6.214844 Z0
G01 X4.863281 Y6.220703 Z0
G01 X4.845703 Y6.226562 Z0
G01 X4.287109 Y6.781250 Z0
G01 X3.728516 Y7.337891 Z0
G01 X3.601562 Y7.486328 Z0
G01 X3.472656 Y7.636719 Z0
G01 X3.402344 Y7.750000 Z0
G01 X3.332031 Y7.861328 Z0
G01 X3.234375 Y8.007812 Z0
G01 X3.136719 Y8.154297 Z0
G01 X3.109375 Y8.154297 Z0
G01 X3.080078 Y8.154297 Z0
G00 Z5.000000

(End cutting path id: path1)


(Start cutting path id: path1)
(Change tool to Default tool)

G00 Z5.000000
G00 X3.111328 Y8.068360

G01 Z0 F100.0(Penetrate)
G01 X3.138672 Y8.041016 Z0 F400.000000
G01 X3.166016 Y8.011719 Z0
G01 X3.294922 Y7.806641 Z0
G01 X3.421876 Y7.601563 Z0
G01 X3.544922 Y7.455078 Z0
G01 X3.667969 Y7.306641 Z0
G01 X4.126954 Y6.853516 Z0
G01 X4.585938 Y6.398438 Z0
G01 X4.593748 Y6.398438 Z0
G01 X4.603518 Y6.398438 Z0
G01 X4.921875 Y6.093750 Z0
G01 X5.240234 Y5.787109 Z0
G01 X5.240234 Y5.773437 Z0
G01 X5.240234 Y5.759765 Z0
G01 X5.466797 Y5.539062 Z0
G01 X5.691406 Y5.318359 Z0
G01 X5.710937 Y5.318359 Z0
G01 X5.730468 Y5.318359 Z0
G01 X5.730468 Y5.298828 Z0
G01 X5.730468 Y5.279297 Z0
G01 X5.916016 Y5.099609 Z0
G01 X6.101562 Y4.919922 Z0
G01 X6.216797 Y4.785156 Z0
G01 X6.333984 Y4.650391 Z0
G01 X6.423828 Y4.515625 Z0
G01 X6.515625 Y4.380859 Z0
G01 X6.568359 Y4.277344 Z0
G01 X6.623047 Y4.173828 Z0
G01 X6.681641 Y4.000000 Z0
G01 X6.740235 Y3.824219 Z0
G01 X6.765626 Y3.691406 Z0
G01 X6.789063 Y3.558594 Z0
G01 X6.789063 Y3.507813 Z0
G01 X6.789063 Y3.457032 Z0
G01 X6.800782 Y3.457032 Z0
G01 X6.810552 Y3.457032 Z0
G01 X6.810552 Y3.330079 Z0
G01 X6.810552 Y3.201173 Z0
G01 X6.802742 Y3.201173 Z0
G01 X6.792972 Y3.201173 Z0
G01 X6.783202 Y3.107423 Z0
G01 X6.773432 Y3.013673 Z0
G01 X6.742182 Y2.908204 Z0
G01 X6.712891 Y2.804688 Z0
G01 X6.656250 Y2.693359 Z0
G01 X6.601562 Y2.583984 Z0
G01 X6.500000 Y2.478516 Z0
G01 X6.400391 Y2.375000 Z0
G01 X6.375000 Y2.361328 Z0
G01 X6.347656 Y2.347656 Z0
G01 X6.363281 Y2.433594 Z0
G01 X6.376953 Y2.519531 Z0
G01 X6.371093 Y2.560547 Z0
G01 X6.365233 Y2.601563 Z0
G01 X6.376952 Y2.601563 Z0
G01 X6.390624 Y2.601563 Z0
G01 X6.390624 Y2.796875 Z0
G01 X6.390624 Y2.992188 Z0
G01 X6.375000 Y2.992188 Z0
G01 X6.361328 Y2.992188 Z0
G01 X6.369138 Y3.021484 Z0
G01 X6.376948 Y3.050781 Z0
G01 X6.351562 Y3.167969 Z0
G01 X6.324219 Y3.285156 Z0
G01 X6.279297 Y3.412109 Z0
G01 X6.234375 Y3.539062 Z0
G01 X6.158203 Y3.685547 Z0
G01 X6.083984 Y3.830078 Z0
G01 X5.986328 Y3.978516 Z0
G01 X5.886719 Y4.125000 Z0
G01 X5.726562 Y4.312500 Z0
G01 X5.564453 Y4.501953 Z0
G01 X5.509766 Y4.548828 Z0
G01 X5.455078 Y4.597656 Z0
G01 X5.455078 Y4.609375 Z0
G01 X5.455078 Y4.623047 Z0
G01 X5.162109 Y4.904297 Z0
G01 X4.871094 Y5.185547 Z0
G01 X4.871094 Y5.195317 Z0
G01 X4.871094 Y5.205087 Z0
G01 X4.521484 Y5.546875 Z0
G01 X4.173828 Y5.888672 Z0
G01 X4.166018 Y5.888672 Z0
G01 X4.158208 Y5.888672 Z0
G01 X3.982422 Y6.052734 Z0
G01 X3.804688 Y6.218750 Z0
G01 X3.794917 Y6.218750 Z0
G01 X3.785147 Y6.218750 Z0
G01 X3.669922 Y6.332031 Z0
G01 X3.552734 Y6.447266 Z0
G01 X3.552734 Y6.457031 Z0
G01 X3.552734 Y6.468750 Z0
G01 X3.511719 Y6.505859 Z0
G01 X3.472656 Y6.541016 Z0
G01 X3.376953 Y6.662109 Z0
G01 X3.283203 Y6.781250 Z0
G01 X3.244141 Y6.841797 Z0
G01 X3.203125 Y6.902344 Z0
G01 X3.162109 Y6.984375 Z0
G01 X3.119141 Y7.066406 Z0
G01 X3.082031 Y7.169922 Z0
G01 X3.046875 Y7.273438 Z0
G01 X3.037105 Y7.345703 Z0
G01 X3.027335 Y7.419923 Z0
G01 X3.017565 Y7.419923 Z0
G01 X3.007795 Y7.419923 Z0
G01 X3.007795 Y7.531250 Z0
G01 X3.007795 Y7.644531 Z0
G01 X3.019514 Y7.644531 Z0
G01 X3.031233 Y7.644531 Z0
G01 X3.031233 Y7.691406 Z0
G01 X3.031233 Y7.740234 Z0
G01 X3.070296 Y7.904297 Z0
G01 X3.111328 Y8.068360 Z0
G00 Z5.000000

(End cutting path id: path1)


(Start cutting path id: path1)
(Change tool to Default tool)

G00 Z5.000000
G00 X2.015625 Y7.675782

G01 Z0 F100.0(Penetrate)
G01 X1.992188 Y7.671872 Z0 F400.000000
G01 X1.968751 Y7.667962 Z0
G01 X1.933595 Y7.546868 Z0
G01 X1.898439 Y7.427727 Z0
G01 X1.880861 Y7.324212 Z0
G01 X1.863283 Y7.222649 Z0
G01 X1.871093 Y7.193352 Z0
G01 X1.878903 Y7.164055 Z0
G01 X1.863278 Y7.164055 Z0
G01 X1.849606 Y7.164055 Z0
G01 X1.849606 Y7.044914 Z0
G01 X1.849606 Y6.927727 Z0
G01 X1.871090 Y6.816399 Z0
G01 X1.894527 Y6.707024 Z0
G01 X1.931636 Y6.603508 Z0
G01 X1.970699 Y6.501946 Z0
G01 X2.044918 Y6.380852 Z0
G01 X2.119137 Y6.259758 Z0
G01 X2.234371 Y6.123039 Z0
G01 X2.351559 Y5.986321 Z0
G01 X2.601559 Y5.749993 Z0
G01 X2.853512 Y5.513664 Z0
G01 X2.861322 Y5.513664 Z0
G01 X2.871092 Y5.513664 Z0
G01 X3.533203 Y4.865234 Z0
G01 X4.197266 Y4.218750 Z0
G01 X4.197266 Y4.210940 Z0
G01 X4.197266 Y4.203130 Z0
G01 X4.345703 Y4.050786 Z0
G01 X4.496094 Y3.896489 Z0
G01 X4.634766 Y3.722661 Z0
G01 X4.771484 Y3.548833 Z0
G01 X4.867187 Y3.394536 Z0
G01 X4.960937 Y3.238286 Z0
G01 X5.025390 Y3.091802 Z0
G01 X5.087890 Y2.943364 Z0
G01 X5.132812 Y2.771489 Z0
G01 X5.177734 Y2.597661 Z0
G01 X5.177734 Y2.554692 Z0
G01 X5.177734 Y2.511723 Z0
G01 X5.189453 Y2.511723 Z0
G01 X5.201172 Y2.511723 Z0
G01 X5.195312 Y2.419926 Z0
G01 X5.191402 Y2.330082 Z0
G01 X5.199212 Y2.292973 Z0
G01 X5.208982 Y2.255864 Z0
G01 X5.236326 Y2.255864 Z0
G01 X5.263670 Y2.255864 Z0
G01 X5.365234 Y2.425781 Z0
G01 X5.466797 Y2.593750 Z0
G01 X5.521484 Y2.701172 Z0
G01 X5.576172 Y2.810547 Z0
G01 X5.615234 Y2.941406 Z0
G01 X5.654297 Y3.074219 Z0
G01 X5.664062 Y3.224609 Z0
G01 X5.671875 Y3.375000 Z0
G01 X5.642578 Y3.517578 Z0
G01 X5.611328 Y3.660156 Z0
G01 X5.562500 Y3.775391 Z0
G01 X5.511719 Y3.892578 Z0
G01 X5.433594 Y4.019531 Z0
G01 X5.355469 Y4.146484 Z0
G01 X5.255859 Y4.271484 Z0
G01 X5.156250 Y4.394531 Z0
G01 X4.564453 Y4.978516 Z0
G01 X3.974609 Y5.560547 Z0
G01 X3.951172 Y5.570312 Z0
G01 X3.927734 Y5.580078 Z0
G01 X3.275391 Y6.226562 Z0
G01 X2.623047 Y6.871094 Z0
G01 X2.476562 Y7.044922 Z0
G01 X2.330078 Y7.216797 Z0
G01 X2.220703 Y7.388672 Z0
G01 X2.111328 Y7.558594 Z0
G01 X2.062500 Y7.617188 Z0
G01 X2.015625 Y7.675782 Z0
G00 Z5.000000

(End cutting path id: path1)


(Start cutting path id: path1)
(Change tool to Default tool)

G00 Z5.000000
G00 X2.013675 Y7.585938

G01 Z0 F100.0(Penetrate)
G01 X2.167972 Y7.355469 Z0 F400.000000
G01 X2.322269 Y7.126953 Z0
G01 X2.449222 Y6.976563 Z0
G01 X2.578128 Y6.826172 Z0
G01 X3.175784 Y6.238281 Z0
G01 X3.773441 Y5.648438 Z0
G01 X3.783211 Y5.648438 Z0
G01 X3.792981 Y5.648438 Z0
G01 X4.406262 Y5.044922 Z0
G01 X5.021496 Y4.439453 Z0
G01 X5.121105 Y4.328125 Z0
G01 X5.220714 Y4.214844 Z0
G01 X5.308605 Y4.095703 Z0
G01 X5.396496 Y3.974610 Z0
G01 X5.462902 Y3.843750 Z0
G01 X5.531261 Y3.712891 Z0
G01 X5.568370 Y3.583985 Z0
G01 X5.607433 Y3.453125 Z0
G01 X5.607433 Y3.410156 Z0
G01 X5.607433 Y3.367187 Z0
G01 X5.623058 Y3.367187 Z0
G01 X5.638683 Y3.367187 Z0
G01 X5.638683 Y3.277344 Z0
G01 X5.638683 Y3.187500 Z0
G01 X5.625000 Y3.187500 Z0
G01 X5.611328 Y3.187500 Z0
G01 X5.601558 Y3.109375 Z0
G01 X5.589839 Y3.033203 Z0
G01 X5.539058 Y2.890625 Z0
G01 X5.486324 Y2.746094 Z0
G01 X5.380855 Y2.568359 Z0
G01 X5.277340 Y2.390625 Z0
G01 X5.251949 Y2.357422 Z0
G01 X5.224605 Y2.324219 Z0
G01 X5.234375 Y2.431641 Z0
G01 X5.244145 Y2.541016 Z0
G01 X5.228520 Y2.541016 Z0
G01 X5.212895 Y2.541016 Z0
G01 X5.220705 Y2.578125 Z0
G01 X5.228515 Y2.617188 Z0
G01 X5.193359 Y2.763672 Z0
G01 X5.158203 Y2.908203 Z0
G01 X5.121094 Y3.013672 Z0
G01 X5.082031 Y3.119141 Z0
G01 X5.005859 Y3.267578 Z0
G01 X4.929688 Y3.417969 Z0
G01 X4.822266 Y3.572266 Z0
G01 X4.716797 Y3.728516 Z0
G01 X4.564453 Y3.906250 Z0
G01 X4.412109 Y4.082031 Z0
G01 X4.244141 Y4.240234 Z0
G01 X4.074219 Y4.398438 Z0
G01 X4.074219 Y4.412109 Z0
G01 X4.074219 Y4.425781 Z0
G01 X3.501953 Y4.980469 Z0
G01 X2.929688 Y5.535156 Z0
G01 X2.605469 Y5.843750 Z0
G01 X2.283203 Y6.150391 Z0
G01 X2.187500 Y6.279297 Z0
G01 X2.093750 Y6.406250 Z0
G01 X2.033203 Y6.527344 Z0
G01 X1.972656 Y6.646484 Z0
G01 X1.941406 Y6.751953 Z0
G01 X1.912109 Y6.857422 Z0
G01 X1.912109 Y6.898438 Z0
G01 X1.912109 Y6.939454 Z0
G01 X1.898437 Y6.939454 Z0
G01 X1.884765 Y6.939454 Z0
G01 X1.886715 Y7.037110 Z0
G01 X1.888665 Y7.134766 Z0
G01 X1.898435 Y7.134766 Z0
G01 X1.908205 Y7.134766 Z0
G01 X1.916015 Y7.220703 Z0
G01 X1.925785 Y7.306640 Z0
G01 X1.958988 Y7.433593 Z0
G01 X1.992191 Y7.562499 Z0
G01 X2.001961 Y7.574218 Z0
G01 X2.013675 Y7.585938 Z0
G00 Z5.000000

(End cutting path id: path1)


(Start cutting path id: path1)
(Change tool to Default tool)

G00 Z5.000000
G00 X1.986331 Y5.904297

G01 Z0 F100.0(Penetrate)
G01 X1.990241 Y5.828125 Z0 F400.000000
G01 X1.996101 Y5.753906 Z0
G01 X1.984375 Y5.753906 Z0
G01 X1.972656 Y5.753906 Z0
G01 X1.972656 Y5.498047 Z0
G01 X1.972656 Y5.242187 Z0
G01 X1.998047 Y5.126953 Z0
G01 X2.021484 Y5.009765 Z0
G01 X2.068359 Y4.898437 Z0
G01 X2.117187 Y4.787109 Z0
G01 X2.208984 Y4.650391 Z0
G01 X2.300781 Y4.515625 Z0
G01 X2.781250 Y4.042969 Z0
G01 X3.261719 Y3.570312 Z0
G01 X3.261719 Y3.564452 Z0
G01 X3.261719 Y3.558592 Z0
G01 X3.349610 Y3.466795 Z0
G01 X3.437501 Y3.373045 Z0
G01 X3.533204 Y3.259764 Z0
G01 X3.626954 Y3.146483 Z0
G01 X3.728516 Y3.000000 Z0
G01 X3.828125 Y2.855469 Z0
G01 X3.910156 Y2.695312 Z0
G01 X3.992187 Y2.533203 Z0
G01 X4.037109 Y2.414062 Z0
G01 X4.080078 Y2.292969 Z0
G01 X4.095703 Y2.283199 Z0
G01 X4.113281 Y2.271480 Z0
G01 X4.130859 Y2.271480 Z0
G01 X4.148437 Y2.271480 Z0
G01 X4.187500 Y2.318359 Z0
G01 X4.228516 Y2.363281 Z0
G01 X4.265625 Y2.427734 Z0
G01 X4.304688 Y2.492188 Z0
G01 X4.328125 Y2.564453 Z0
G01 X4.351562 Y2.638672 Z0
G01 X4.361328 Y2.818359 Z0
G01 X4.369141 Y3.000000 Z0
G01 X4.343750 Y3.134766 Z0
G01 X4.318359 Y3.269531 Z0
G01 X4.265625 Y3.421875 Z0
G01 X4.212891 Y3.574219 Z0
G01 X4.160156 Y3.677734 Z0
G01 X4.107422 Y3.779297 Z0
G01 X4.009766 Y3.914062 Z0
G01 X3.912109 Y4.046875 Z0
G01 X3.714844 Y4.248047 Z0
G01 X3.519531 Y4.447266 Z0
G01 X3.505859 Y4.447266 Z0
G01 X3.494140 Y4.447266 Z0
G01 X3.398437 Y4.544922 Z0
G01 X3.302734 Y4.642578 Z0
G01 X3.292964 Y4.642578 Z0
G01 X3.283194 Y4.642578 Z0
G01 X3.072266 Y4.847656 Z0
G01 X2.863281 Y5.054688 Z0
G01 X2.861328 Y5.062500 Z0
G01 X2.861328 Y5.070310 Z0
G01 X2.654297 Y5.281250 Z0
G01 X2.449219 Y5.490234 Z0
G01 X2.449219 Y5.498044 Z0
G01 X2.449219 Y5.505854 Z0
G01 X2.244141 Y5.705078 Z0
G01 X2.041016 Y5.904297 Z0
G01 X2.013672 Y5.904297 Z0
G01 X1.986331 Y5.904297 Z0
G00 Z5.000000

(End cutting path id: path1)


(Start cutting path id: path1)
(Change tool to Default tool)

G00 Z5.000000
G00 X2.035159 Y5.820313

G01 Z0 F100.0(Penetrate)
G01 X2.333987 Y5.521485 Z0 F400.000000
G01 X2.632815 Y5.222657 Z0
G01 X2.632815 Y5.212887 Z0
G01 X2.632815 Y5.203117 Z0
G01 X2.748047 Y5.093750 Z0
G01 X2.863281 Y4.984375 Z0
G01 X2.863281 Y4.974605 Z0
G01 X2.863281 Y4.962886 Z0
G01 X3.042969 Y4.791011 Z0
G01 X3.222656 Y4.621089 Z0
G01 X3.480469 Y4.380855 Z0
G01 X3.740234 Y4.142574 Z0
G01 X3.843750 Y4.021480 Z0
G01 X3.947266 Y3.900386 Z0
G01 X4.007813 Y3.810542 Z0
G01 X4.070313 Y3.718745 Z0
G01 X4.123047 Y3.615229 Z0
G01 X4.177734 Y3.509761 Z0
G01 X4.214843 Y3.404292 Z0
G01 X4.253905 Y3.298823 Z0
G01 X4.283202 Y3.156245 Z0
G01 X4.310546 Y3.013667 Z0
G01 X4.318356 Y3.009757 Z0
G01 X4.328126 Y3.005847 Z0
G01 X4.318356 Y2.853503 Z0
G01 X4.306637 Y2.699206 Z0
G01 X4.289059 Y2.630847 Z0
G01 X4.271481 Y2.564441 Z0
G01 X4.224606 Y2.478504 Z0
G01 X4.177731 Y2.392567 Z0
G01 X4.148434 Y2.367176 Z0
G01 X4.121090 Y2.341785 Z0
G01 X4.111320 Y2.371082 Z0
G01 X4.101550 Y2.398426 Z0
G01 X4.062500 Y2.503906 Z0
G01 X4.023438 Y2.609375 Z0
G01 X3.962891 Y2.728516 Z0
G01 X3.902344 Y2.847656 Z0
G01 X3.826172 Y2.966797 Z0
G01 X3.750000 Y3.087891 Z0
G01 X3.646484 Y3.216797 Z0
G01 X3.544922 Y3.343750 Z0
G01 X3.437500 Y3.464844 Z0
G01 X3.332031 Y3.583984 Z0
G01 X2.839844 Y4.072266 Z0
G01 X2.347656 Y4.560547 Z0
G01 X2.277344 Y4.658203 Z0
G01 X2.207031 Y4.755859 Z0
G01 X2.152344 Y4.863281 Z0
G01 X2.095703 Y4.970703 Z0
G01 X2.064453 Y5.080078 Z0
G01 X2.031250 Y5.191406 Z0
G01 X2.021484 Y5.453125 Z0
G01 X2.011714 Y5.716797 Z0
G01 X2.023433 Y5.720707 Z0
G01 X2.035152 Y5.726567 Z0
G01 X2.035152 Y5.773442 Z0
G01 X2.035159 Y5.820313 Z0
G00 Z5.000000

(End cutting path id: path1)


(Start cutting path id: path1)
(Change tool to Default tool)

G00 Z5.000000
G00 X2.326175 Y2.023438

G01 Z0 F100.0(Penetrate)
G01 X2.326175 Y2.005860 Z0 F400.000000
G01 X2.326175 Y1.990235 Z0
G01 X2.386722 Y1.935548 Z0
G01 X2.449222 Y1.880861 Z0
G01 X2.449222 Y1.871091 Z0
G01 X2.449222 Y1.859372 Z0
G01 X2.521488 Y1.787106 Z0
G01 X2.593754 Y1.714840 Z0
G01 X2.607426 Y1.714840 Z0
G01 X2.621098 Y1.714840 Z0
G01 X2.650395 Y1.677731 Z0
G01 X2.681645 Y1.640622 Z0
G01 X2.806645 Y1.544919 Z0
G01 X2.931645 Y1.451169 Z0
G01 X3.046879 Y1.374997 Z0
G01 X3.162114 Y1.300778 Z0
G01 X3.306645 Y1.224606 Z0
G01 X3.453129 Y1.148434 Z0
G01 X3.628910 Y1.080075 Z0
G01 X3.804692 Y1.011716 Z0
G01 X4.003910 Y0.964841 Z0
G01 X4.201176 Y0.917966 Z0
G01 X4.298832 Y0.916016 Z0
G01 X4.396488 Y0.912106 Z0
G01 X4.396488 Y0.902336 Z0
G01 X4.396488 Y0.890617 Z0
G01 X4.441410 Y0.890617 Z0
G01 X4.488285 Y0.890617 Z0
G01 X4.488285 Y0.574211 Z0
G01 X4.488285 Y0.259758 Z0
G01 X5.105473 Y0.263668 Z0
G01 X5.722660 Y0.267578 Z0
G01 X5.726570 Y0.578125 Z0
G01 X5.730480 Y0.890625 Z0
G01 X5.769542 Y0.890625 Z0
G01 X5.806651 Y0.890625 Z0
G01 X5.806651 Y0.902344 Z0
G01 X5.806651 Y0.916016 Z0
G01 X5.843760 Y0.908206 Z0
G01 X5.880869 Y0.902346 Z0
G01 X6.052744 Y0.935549 Z0
G01 X6.224619 Y0.966799 Z0
G01 X6.410156 Y1.025391 Z0
G01 X6.593750 Y1.085938 Z0
G01 X6.779297 Y1.173828 Z0
G01 X6.964844 Y1.263672 Z0
G01 X7.125000 Y1.367188 Z0
G01 X7.287109 Y1.470703 Z0
G01 X7.427734 Y1.585938 Z0
G01 X7.570312 Y1.701172 Z0
G01 X7.570312 Y1.716797 Z0
G01 X7.570312 Y1.730469 Z0
G01 X7.589843 Y1.730469 Z0
G01 X7.609374 Y1.730469 Z0
G01 X7.720703 Y1.839844 Z0
G01 X7.832031 Y1.949219 Z0
G01 X7.832031 Y1.966797 Z0
G01 X7.832031 Y1.986328 Z0
G01 X7.845703 Y1.986328 Z0
G01 X7.861328 Y1.986328 Z0
G01 X7.861328 Y2.003906 Z0
G01 X7.861328 Y2.023438 Z0
G01 X5.093750 Y2.023438 Z0
G01 X2.326175 Y2.023438 Z0
G00 Z5.000000

(End cutting path id: path1)


(Start cutting path id: path1)
(Change tool to Default tool)

G00 Z5.000000
G00 X5.033206 Y1.994141

G01 Z0 F100.0(Penetrate)
G01 X6.404300 Y1.988281 Z0 F400.000000
G01 X7.775393 Y1.984371 Z0
G01 X7.699221 Y1.908199 Z0
G01 X7.625000 Y1.832031 Z0
G01 X7.455078 Y1.689453 Z0
G01 X7.287109 Y1.546875 Z0
G01 X7.111328 Y1.431641 Z0
G01 X6.933594 Y1.316406 Z0
G01 X6.781250 Y1.240234 Z0
G01 X6.626953 Y1.164062 Z0
G01 X6.474609 Y1.107421 Z0
G01 X6.320312 Y1.050780 Z0
G01 X6.148437 Y1.009764 Z0
G01 X5.976562 Y0.966795 Z0
G01 X5.876953 Y0.957025 Z0
G01 X5.775391 Y0.947255 Z0
G01 X5.775391 Y0.935536 Z0
G01 X5.775391 Y0.925766 Z0
G01 X5.730469 Y0.931626 Z0
G01 X5.683594 Y0.939436 Z0
G01 X5.683594 Y0.613281 Z0
G01 X5.683594 Y0.289062 Z0
G01 X5.101562 Y0.289062 Z0
G01 X4.519531 Y0.289062 Z0
G01 X4.519531 Y0.613281 Z0
G01 X4.519531 Y0.939453 Z0
G01 X4.472656 Y0.931643 Z0
G01 X4.425781 Y0.925783 Z0
G01 X4.425781 Y0.937500 Z0
G01 X4.425781 Y0.949219 Z0
G01 X4.376953 Y0.951169 Z0
G01 X4.326172 Y0.951169 Z0
G01 X4.146484 Y0.986328 Z0
G01 X3.964844 Y1.023438 Z0
G01 X3.800781 Y1.078125 Z0
G01 X3.636719 Y1.132812 Z0
G01 X3.437500 Y1.226562 Z0
G01 X3.238281 Y1.322266 Z0
G01 X3.082031 Y1.425781 Z0
G01 X2.925781 Y1.527344 Z0
G01 X2.775391 Y1.650391 Z0
G01 X2.625000 Y1.773438 Z0
G01 X2.525391 Y1.875000 Z0
G01 X2.425781 Y1.978516 Z0
G01 X3.728516 Y1.986328 Z0
G01 X5.033206 Y1.994141 Z0
G00 Z5.000000

(End cutting path id: path1)


(Footer)
M5
G00 X0.0000 Y0.0000
M2
(Using default footer. To add your own footer create file "footer" in the output dir.)
(end)
%